X: 1
T: Lucy McKenna
M: 6/8
L: 1/8
R: jig
K: Ador
|:A/B/|cBA ABA|AGE G2A|cBA Bcd|eaa ged|
c2A ABA|AGE G2A|Bcd edc|cAA A2 :|
|:d|eaa ged|eaa ged|cde ged|cde ged|
eaa ged|eaa ged|cde ged|cAA A2 :|
